static/img/convenient.svg

<svg fill="none" height="71" viewBox="0 0 83 71" width="83" xmlns="http://www.w3.org/2000/svg"><path d="m74.9268 0h-67.48246c-4.10483 0-7.44434 3.33951-7.44434 7.44434v55.88086c0 4.1048 3.33951 7.4443 7.44434 7.4443h67.48246c4.1048 0 7.4443-3.3395 7.4443-7.4443v-55.88086c0-4.10483-3.3395-7.44434-7.4443-7.44434zm2.417 7.44434v4.15606h-18.1561v-6.57306h15.7391c1.3328 0 2.417 1.08417 2.417 2.417zm-69.89946-2.417h46.71596v6.57306h-49.13296v-4.15606c0-1.33283 1.08417-2.417 2.417-2.417zm67.48246 60.71486h-67.48246c-1.33283 0-2.417-1.0842-2.417-2.417v-46.6975h72.31646v46.6975c0 1.3328-1.0842 2.417-2.417 2.417z" fill="#454b53"/><g fill="#2ebfa5"><path d="m30.6859 35.6845c-.9167-.4034-2.0053.0543-2.358 1.014l-1.6028 3.6539-.7003-1.6473c-.5967-1.4699-2.7465-1.4854-3.3654-.0031l-.687 1.6388-1.6018-3.6514c-.3885-.9896-1.4692-1.3955-2.3337-1.0053-.9513.413-1.3721 1.4629-.9699 2.3783 3.3834 8.0049 3.3192 8.0526 3.739 8.3162.42.4625 1.2899.5571 1.7223.373.9919-.2433 1.4219-1.7555 1.8228-2.732.4642 1.1 1.0464 3.3505 2.8665 2.7467.3318-.0466.9262-.4502 1.1766-1.0366l3.2602-7.6665c.4024-.9144-.0222-1.9582-.9685-2.3787z"/><path d="m47.5119 35.6845c-.9183-.4041-2.0057.0559-2.3578 1.014l-1.6028 3.6539-.7005-1.6475c-.5815-1.4318-2.6835-1.5188-3.3573-.0212-.0027.0062-.0054.0122-.008.0183l-.687 1.6388-1.6018-3.6514c-.3884-.9896-1.4691-1.3955-2.3336-1.0053-.9513.413-1.3721 1.4629-.9699 2.3783 3.4478 8.1571 3.3192 8.0526 3.739 8.3162.2376.2616.6727.4244.8923.4341 1.7004.3082 2.1003-1.4469 2.6527-2.7931.4672 1.1074 1.0459 3.3498 2.8668 2.7467.3059-.0429.9252-.4459 1.1766-1.0366l3.2602-7.6665c.402-.9144-.0226-1.9582-.9689-2.3787z"/><path d="m64.3373 35.6845c-.9182-.4041-2.0057.0559-2.3578 1.014l-1.6027 3.6539-.7006-1.6475c-.5814-1.4318-2.6834-1.5188-3.3573-.0212-.0027.0062-.0054.0122-.0079.0183l-.687 1.6388-1.6018-3.6514c-.3885-.9896-1.4692-1.3955-2.3337-1.0053-.9513.413-1.372 1.4629-.9699 2.3783 3.3836 8.0049 3.3192 8.0525 3.739 8.3162.4446.4898 1.6161.7411 2.3853-.0327.3854-.3047.437-.5648 1.1598-2.3265.4693 1.1122 1.0447 3.3502 2.8667 2.7467.3146-.0443.9222-.4399 1.1766-1.0366l3.2603-7.6665c.402-.9142-.0225-1.958-.969-2.3785z"/></g></svg>

<svg width="83" height="71" viewBox="0 0 83 71" fill="none" xmlns="http://www.w3.org/2000/svg">
<path d="M74.9268 0H7.44434C3.33951 0 0 3.33951 0 7.44434V63.3252C0 67.43 3.33951 70.7695 7.44434 70.7695H74.9268C79.0316 70.7695 82.3711 67.43 82.3711 63.3252V7.44434C82.3711 3.33951 79.0316 0 74.9268 0ZM77.3438 7.44434V11.6004H59.1877V5.02734H74.9268C76.2596 5.02734 77.3438 6.11151 77.3438 7.44434ZM7.44434 5.02734H54.1603V11.6004H5.02734V7.44434C5.02734 6.11151 6.11151 5.02734 7.44434 5.02734ZM74.9268 65.7422H7.44434C6.11151 65.7422 5.02734 64.658 5.02734 63.3252V16.6277H77.3438V63.3252C77.3438 64.658 76.2596 65.7422 74.9268 65.7422Z" fill="#454B53"/>
<path d="M30.6859 35.6845C29.7692 35.2811 28.6806 35.7388 28.3279 36.6985L26.7251 40.3524L26.0248 38.7051C25.4281 37.2352 23.2783 37.2197 22.6594 38.702L21.9724 40.3408L20.3706 36.6894C19.9821 35.6998 18.9014 35.2939 18.0369 35.6841C17.0856 36.0971 16.6648 37.147 17.067 38.0624C20.4504 46.0673 20.3862 46.115 20.806 46.3786C21.226 46.8411 22.0959 46.9357 22.5283 46.7516C23.5202 46.5083 23.9502 44.9961 24.3511 44.0196C24.8153 45.1196 25.3975 47.3701 27.2176 46.7663C27.5494 46.7197 28.1438 46.3161 28.3942 45.7297L31.6544 38.0632C32.0568 37.1488 31.6322 36.105 30.6859 35.6845Z" fill="#2EBFA5"/>
<path d="M47.5119 35.6845C46.5936 35.2804 45.5062 35.7404 45.1541 36.6985L43.5513 40.3524L42.8508 38.7049C42.2693 37.2731 40.1673 37.1861 39.4935 38.6837C39.4908 38.6899 39.4881 38.6959 39.4855 38.702L38.7985 40.3408L37.1967 36.6894C36.8083 35.6998 35.7276 35.2939 34.8631 35.6841C33.9118 36.0971 33.491 37.147 33.8932 38.0624C37.341 46.2195 37.2124 46.115 37.6322 46.3786C37.8698 46.6402 38.3049 46.803 38.5245 46.8127C40.2249 47.1209 40.6248 45.3658 41.1772 44.0196C41.6444 45.127 42.2231 47.3694 44.044 46.7663C44.3499 46.7234 44.9692 46.3204 45.2206 45.7297L48.4808 38.0632C48.8828 37.1488 48.4582 36.105 47.5119 35.6845Z" fill="#2EBFA5"/>
<path d="M64.3373 35.6845C63.4191 35.2804 62.3316 35.7404 61.9795 36.6985L60.3768 40.3524L59.6762 38.7049C59.0948 37.2731 56.9928 37.1861 56.3189 38.6837C56.3162 38.6899 56.3135 38.6959 56.311 38.702L55.624 40.3408L54.0222 36.6894C53.6337 35.6998 52.553 35.2939 51.6885 35.6841C50.7372 36.0971 50.3165 37.147 50.7186 38.0624C54.1022 46.0673 54.0378 46.1149 54.4576 46.3786C54.9022 46.8684 56.0737 47.1197 56.8429 46.3459C57.2283 46.0412 57.2799 45.7811 58.0027 44.0194C58.472 45.1316 59.0474 47.3696 60.8694 46.7661C61.184 46.7218 61.7916 46.3262 62.046 45.7295L65.3063 38.063C65.7083 37.1488 65.2838 36.105 64.3373 35.6845Z" fill="#2EBFA5"/>
</svg>
